X:60
T:Rose in the Heather, The
R:jig
D:Frankie Gavin: Frankie Goes to Town
Z:id:hn-jig-60
M:6/8
K:D
D2F EDB, | DFA BAF | ABd ede | fdB AFE |
~F3 EFE | DFA Bcd | edB AFE | FDD D3 :|
|: fdB ABd | faa afd | ~g3 fed | Bee ede |
fdB ABd | faa afa | baf gfe |1 fdd d2e :|2 fdB AFE ||
P:Variations:
|: ~F3 EFE | DFA BAF | ABd efg | fdB AFE |
D2F EDB, | DFA BAF | AdB AFE |1 FDD D3 :|2 FDD D2e ||
|: fdB AFA | dfa afd | gfe fed | Bee ede |
fdB AFA | dfa afa | baf gfe |1 fdd d2e :|2 fdB AFE ||
P:More variations:
|: DEF EDB, | DFA BAF | ABd ede | fdB AFE |
~F3 ~E3 | DFA A2d | edB AFE | FDD D3 :|
|: fdB ABd | fab afd | g2e fed | Bee e2g |
fdB ABd | faa afa | baf gfe |1 fdc d2e :|2 fdB AFE ||

